packages/web-icons/svgs/arrow_7_down.svg

<svg viewBox="0 0 48 48" xmlns="http://www.w3.org/2000/svg" class="ridi_icon"><path d="M30.4 19.4l-6.2 6.2-6.1-6.1c-1.1-1.1-2.9-1.1-4 0s-1.1 2.9 0 4l7.8 7.8.3.3c.4.4.8.6 1.2.7 1 .3 2.1.1 2.8-.7.1-.1.3-.3.4-.5l7.7-7.7c1.1-1.1 1.1-2.9 0-4-1-1.1-2.8-1.1-3.9 0zM24 0C10.7 0 0 10.7 0 24s10.7 24 24 24 24-10.7 24-24S37.3 0 24 0zm0 42C14 42 6 34 6 24S14 6 24 6s18 8 18 18-8 18-18 18z"/></svg>

<?xml version="1.0" encoding="UTF-8"?>
<svg width="48px" height="48px" viewBox="0 0 48 48" version="1.1" xmlns="http://www.w3.org/2000/svg">
  <!-- Generator: Sketch 41.2 (35397) - http://www.bohemiancoding.com/sketch -->
  <title>arrow_7_down</title>
  <desc>Created with Sketch.</desc>
  <defs></defs>
  <g id="Page-1" stroke="none" stroke-width="1" fill="none" fill-rule="evenodd">
    <g id="arrow_7_down" fill="#000000">
      <g id="레이어_1">
        <path d="M30.4,19.4 L24.2,25.6 L18.1,19.5 C17,18.4 15.2,18.4 14.1,19.5 C13,20.6 13,22.4 14.1,23.5 L21.9,31.3 L22.2,31.6 C22.6,32 23,32.2 23.4,32.3 C24.4,32.6 25.5,32.4 26.2,31.6 C26.3,31.5 26.5,31.3 26.6,31.1 L34.3,23.4 C35.4,22.3 35.4,20.5 34.3,19.4 C33.3,18.3 31.5,18.3 30.4,19.4 L30.4,19.4 Z M24,0 C10.7,0 0,10.7 0,24 C0,37.3 10.7,48 24,48 C37.3,48 48,37.3 48,24 C48,10.7 37.3,0 24,0 Z M24,42 C14,42 6,34 6,24 C6,14 14,6 24,6 C34,6 42,14 42,24 C42,34 34,42 24,42 Z" id="Shape"></path>
      </g>
    </g>
  </g>
</svg>
